build/images/content/icons/icon-7.svg

<svg width="100" height="100" viewBox="0 0 100 100" fill="none" xmlns="http://www.w3.org/2000/svg">
<path d="M60.242 80.3004H59.692H59.332C59.332 80.0704 59.332 79.8704 59.332 79.7204C59.332 79.5704 59.332 79.3804 59.282 79.1404L58.992 76.5004C58.662 77.1504 58.332 77.7904 57.992 78.4204C57.652 79.0504 57.402 79.6404 57.082 80.3204H56.732C56.422 79.6604 56.112 79.0104 55.782 78.3704C55.452 77.7304 55.152 77.1504 54.882 76.6404L54.672 78.3704C54.672 78.6704 54.602 79.0104 54.572 79.3704C54.5387 79.6792 54.522 79.9897 54.522 80.3004C54.4088 80.2928 54.2952 80.2928 54.182 80.3004H54.032H53.832L54.112 78.5504L54.642 74.6104C54.7614 74.6273 54.8826 74.6273 55.002 74.6104H55.182H55.362C55.672 75.2804 55.982 75.9304 56.302 76.6104C56.622 77.2904 56.952 77.9104 57.302 78.5304C57.972 77.2904 58.602 75.9904 59.202 74.6304H59.382H59.582C59.7081 74.6479 59.836 74.6479 59.962 74.6304L60.442 78.6304C60.502 79.1104 60.532 79.4104 60.552 79.5204C60.552 79.7804 60.642 80.0504 60.712 80.3304L60.242 80.3004Z" fill="#393C4C"/>
<path d="M69.1921 76.3499C69.166 76.3508 69.1403 76.3445 69.1176 76.3317C69.095 76.3188 69.0764 76.2999 69.064 76.277C69.0515 76.2542 69.0457 76.2283 69.0471 76.2023C69.0485 76.1763 69.0572 76.1512 69.072 76.1299L70.6221 73.9399C70.636 73.9213 70.6541 73.9061 70.675 73.8957C70.6958 73.8853 70.7188 73.8799 70.742 73.8799C70.7653 73.8799 70.7883 73.8853 70.8091 73.8957C70.83 73.9061 70.8481 73.9213 70.8621 73.9399L72.412 76.1299C72.4269 76.1512 72.4356 76.1763 72.437 76.2023C72.4384 76.2283 72.4326 76.2542 72.4201 76.277C72.4077 76.2999 72.3891 76.3188 72.3665 76.3317C72.3438 76.3445 72.3181 76.3508 72.2921 76.3499H69.1921Z" fill="#393C4C"/>
<path d="M42.6314 73.8799H45.7314C45.7583 73.8794 45.7848 73.8866 45.8076 73.9007C45.8305 73.9148 45.8489 73.9352 45.8605 73.9595C45.8721 73.9837 45.8765 74.0108 45.8731 74.0375C45.8697 74.0642 45.8587 74.0893 45.8414 74.1099L44.3214 76.2899C44.3085 76.3085 44.2913 76.3236 44.2713 76.3341C44.2513 76.3446 44.229 76.3501 44.2064 76.3501C44.1838 76.3501 44.1615 76.3446 44.1415 76.3341C44.1215 76.3236 44.1043 76.3085 44.0914 76.2899L42.5414 74.1099C42.5249 74.0906 42.514 74.0672 42.5098 74.0422C42.5055 74.0172 42.5082 73.9915 42.5174 73.9679C42.5267 73.9443 42.5422 73.9236 42.5622 73.9081C42.5823 73.8926 42.6062 73.8829 42.6314 73.8799Z" fill="#393C4C"/>
<path d="M65.6898 9H48.8998C44.7108 9.01319 40.6971 10.6831 37.7351 13.6452C34.773 16.6073 33.103 20.621 33.0898 24.81V70.56C33.0898 71.09 33.0898 71.56 33.1698 72.12V75.74C33.4298 84.61 44.1698 91.74 57.2998 91.74C70.4298 91.74 81.1798 84.6 81.4398 75.74V24.81C81.4268 20.6313 79.7651 16.6267 76.8159 13.6663C73.8668 10.7059 69.8684 9.02896 65.6898 9V9Z" stroke="#393C4C" stroke-width="2" stroke-miterlimit="10"/>
<path d="M76.9302 24.7297C76.9302 22.4727 76.0336 20.3082 74.4376 18.7122C72.8417 17.1163 70.6771 16.2197 68.4202 16.2197H46.1702C43.9132 16.2197 41.7486 17.1163 40.1527 18.7122C38.5567 20.3082 37.6602 22.4727 37.6602 24.7297V68.5597C37.6602 78.5597 46.4502 86.6397 57.2902 86.6397C68.1302 86.6397 76.9302 78.5497 76.9302 68.5597V24.7297Z" stroke="#393C4C" stroke-width="2" stroke-miterlimit="10"/>
<path d="M37.6602 22.9404H76.9302" stroke="#393C4C" stroke-width="2" stroke-miterlimit="10"/>
<path d="M37.6602 64.75H76.9302" stroke="#393C4C" stroke-width="2" stroke-miterlimit="10"/>
<path d="M37.6602 70.6699H76.9302" stroke="#393C4C" stroke-width="2" stroke-miterlimit="10"/>
<path d="M45.0117 81.5099L52.0117 70.6699" stroke="#393C4C" stroke-width="2" stroke-miterlimit="10"/>
<path d="M69.582 81.5099L62.582 70.6699" stroke="#393C4C" stroke-width="2" stroke-miterlimit="10"/>
<path d="M67.6403 9.34964C66.1103 11.7296 62.0603 13.4296 57.2903 13.4296C52.5203 13.4296 48.2903 11.6296 46.8203 9.13965" stroke="#393C4C" stroke-width="2" stroke-miterlimit="10"/>
<path d="M50.0391 48.9805H60.6191" stroke="#393C4C" stroke-width="2" stroke-miterlimit="10" stroke-linecap="round"/>
<path d="M56.7719 42.4997H49.9219L51.8419 40.4997H55.1619L56.7719 42.4997ZM50.1919 34.5697L50.5819 29.3297L52.1919 31.3297L51.9819 34.0597L50.7819 35.3397L50.1919 34.5697ZM57.8119 28.9297L55.8919 30.9297H52.5719L50.9619 28.9297H57.8119ZM55.8119 34.7097L56.6319 35.7097L55.6319 36.7097H51.9119L51.1119 35.7097L52.1119 34.7097H55.8119ZM57.5119 36.8597L57.1219 42.1097L55.5119 40.1097L55.7219 37.3697L56.9219 36.1097L57.5119 36.8597Z" fill="#393C4C"/>
<path d="M58.8906 42.5L59.0406 40.5H60.8106L60.6506 42.5H58.8906Z" fill="#393C4C"/>
<path d="M64.5787 37.3997L64.3687 40.1297L62.4688 42.1297L62.8487 36.8797L63.5787 36.1197L64.5787 37.3997ZM69.5788 42.5397H62.7687L64.6887 40.5397H68.0087L69.5788 42.5397ZM62.9987 34.6097L63.3887 29.3697L65.0087 31.3697L64.8088 34.0997L63.5887 35.3797L62.9987 34.6097ZM70.6188 28.9697L68.6987 30.9697H65.4187L63.8088 28.9697H70.6188ZM68.6188 34.7497L69.4388 35.7497L68.4388 36.7497H64.7587L63.9587 35.7497L64.9587 34.7497H68.6188ZM70.3187 36.8997L69.9388 42.1497L68.3187 40.1497L68.5287 37.4097L69.7288 36.1497L70.3187 36.8997ZM68.7787 34.1097L68.9887 31.3397L70.9087 29.3397L70.5088 34.5997L69.7787 35.3797L68.7787 34.1097Z" fill="#393C4C"/>
<path d="M36.66 85.32C46.4133 85.32 54.32 77.4133 54.32 67.66C54.32 57.9066 46.4133 50 36.66 50C26.9067 50 19 57.9066 19 67.66C19 77.4133 26.9067 85.32 36.66 85.32Z" fill="white" stroke="#F91A2B" stroke-width="2" stroke-miterlimit="10"/>
<path d="M41.9456 68.4054L33.7317 73.5223C33.6733 73.5583 33.6063 73.5782 33.5376 73.58C33.4689 73.5817 33.401 73.5651 33.3408 73.532C33.2806 73.4989 33.2304 73.4504 33.1952 73.3915C33.16 73.3327 33.1412 73.2655 33.1406 73.1969V62.9632C33.1412 62.8947 33.16 62.8275 33.1952 62.7686C33.2304 62.7097 33.2806 62.6613 33.3408 62.6281C33.401 62.595 33.4689 62.5785 33.5376 62.5802C33.6063 62.5819 33.6733 62.6018 33.7317 62.6379L41.966 67.7548C42.0212 67.7902 42.0663 67.8394 42.0969 67.8974C42.1275 67.9554 42.1425 68.0203 42.1404 68.0858C42.1384 68.1514 42.1194 68.2152 42.0852 68.2712C42.0511 68.3272 42.003 68.3734 41.9456 68.4054Z" fill="#F91A2B" stroke="#F91A2B" stroke-width="2" stroke-miterlimit="10"/>
</svg>

<svg width="100" height="100" fill="none" xmlns="http://www.w3.org/2000/svg"><path d="M60.242 80.3h-.91v-.58c0-.15 0-.34-.05-.58l-.29-2.64c-.33.65-.66 1.29-1 1.92-.34.63-.59 1.22-.91 1.9h-.35c-.31-.66-.62-1.31-.95-1.95-.33-.64-.63-1.22-.9-1.73l-.21 1.73c0 .3-.07.64-.1 1-.033.31-.05.62-.05.93a2.538 2.538 0 00-.34 0h-.35l.28-1.75.53-3.94c.12.017.24.017.36 0h.36c.31.67.62 1.32.94 2 .32.68.65 1.3 1 1.92.67-1.24 1.3-2.54 1.9-3.9h.38c.126.018.254.018.38 0l.48 4c.06.48.09.78.11.89 0 .26.09.53.16.81l-.47-.03zm8.95-3.95a.142.142 0 01-.128-.073.14.14 0 01.008-.147l1.55-2.19a.149.149 0 01.187-.044.15.15 0 01.053.044l1.55 2.19a.14.14 0 01-.12.22h-3.1zm-26.561-2.47h3.1a.14.14 0 01.11.23l-1.52 2.18a.14.14 0 01-.23 0l-1.55-2.18a.14.14 0 01.09-.23z" fill="#393C4C"/><path d="M65.69 9H48.9a15.86 15.86 0 00-15.81 15.81v45.75c0 .53 0 1 .08 1.56v3.62c.26 8.87 11 16 24.13 16 13.13 0 23.88-7.14 24.14-16V24.81A15.86 15.86 0 0065.69 9v0z" stroke="#393C4C" stroke-width="2" stroke-miterlimit="10"/><path d="M76.93 24.73a8.51 8.51 0 00-8.51-8.51H46.17a8.51 8.51 0 00-8.51 8.51v43.83c0 10 8.79 18.08 19.63 18.08s19.64-8.09 19.64-18.08V24.73zm-39.27-1.79h39.27M37.66 64.75h39.27m-39.27 5.92h39.27M45.012 81.51l7-10.84m17.57 10.84l-7-10.84M67.64 9.35c-1.53 2.38-5.58 4.08-10.35 4.08s-9-1.8-10.47-4.29" stroke="#393C4C" stroke-width="2" stroke-miterlimit="10"/><path d="M50.04 48.98h10.58" stroke="#393C4C" stroke-width="2" stroke-miterlimit="10" stroke-linecap="round"/><path d="M56.772 42.5h-6.85l1.92-2h3.32l1.61 2zm-6.58-7.93l.39-5.24 1.61 2-.21 2.73-1.2 1.28-.59-.77zm7.62-5.64l-1.92 2h-3.32l-1.61-2h6.85zm-2 5.78l.82 1-1 1h-3.72l-.8-1 1-1h3.7zm1.7 2.15l-.39 5.25-1.61-2 .21-2.74 1.2-1.26.59.75zm1.378 5.64l.15-2h1.77l-.16 2h-1.76zm5.689-5.1l-.21 2.73-1.9 2 .38-5.25.73-.76 1 1.28zm5 5.14h-6.81l1.92-2h3.32l1.57 2zm-6.58-7.93l.39-5.24 1.62 2-.2 2.73-1.22 1.28-.59-.77zm7.62-5.64l-1.92 2h-3.28l-1.61-2h6.81zm-2 5.78l.82 1-1 1h-3.68l-.8-1 1-1h3.66zm1.7 2.15l-.38 5.25-1.62-2 .21-2.74 1.2-1.26.59.75zm-1.54-2.79l.21-2.77 1.92-2-.4 5.26-.73.78-1-1.27z" fill="#393C4C"/><path d="M36.66 85.32c9.753 0 17.66-7.907 17.66-17.66S46.413 50 36.66 50 19 57.907 19 67.66s7.907 17.66 17.66 17.66z" fill="#fff" stroke="#F91A2B" stroke-width="2" stroke-miterlimit="10"/><path d="M41.946 68.405l-8.214 5.117a.39.39 0 01-.537-.13.385.385 0 01-.054-.195V62.963a.386.386 0 01.59-.325l8.235 5.117a.38.38 0 01-.02.65z" fill="#F91A2B" stroke="#F91A2B" stroke-width="2" stroke-miterlimit="10"/></svg>
